media/costumes/F-glow.svg

<svg width="71" height="83" xmlns="http://www.w3.org/2000/svg"><path fill="#0CC" d="M70.109 20.47c-.05.65-.08 1.2-.1 1.66.19.78.32 1.66.32 2.64 0 .22.02.52.04.91.12 1.62-.13 3.25-.73 4.77-.48 1.23-1.14 2.39-2.09 3.67-.82 1.11-1.84 2.06-3.01 2.79-2.52 1.57-5.44 2.37-8.69 2.37-.57 0-1.14-.03-1.69-.09-.08 1.01-.28 1.98-.58 2.9-.15.44-.32.88-.52 1.3.04.66.11 1.52.21 2.62.96 7.29-3.09 11.05-4.91 12.35-.38.26-.76.52-1.16.75 1.48 2.57 1.83 4.95 1.83 6.6 0 4.6-2.46 8.69-6.74 11.21-.24.14-.49.27-.74.4-.47.23-.97.49-1.49.76-1.6.86-3.38 1.31-5.2 1.31h-6.63c-.29.05-1.31.25-3.48.99-4.45 1.53-7.48 2.18-10.12 2.18-2.11 0-4.13-.38-6.02-1.14-.54-.21-1.06-.47-1.56-.77-.81-.49-1.62-1.07-2.47-1.79-2.59-2.19-4.2-5.34-4.51-8.87-.25-2.69.18-5.18 1.28-7.38.05-.1.1-.2.15-.29 1.98-3.69 5.14-6.3 9.01-7.54.02-.57.04-1.17.07-1.81v-.07c-4.16-2.25-6.78-6.66-6.78-12.02 0-4.22 1.82-7.97 5.01-10.41a14.214 14.214 0 0 1-5.43-4.94c-1.45-2.1-2.21-4.53-2.21-7.1 0-5.32 3.21-9.93 8.61-12.37 2.54-1.19 5.05-1.82 7.47-1.88.53-.03 1.63-.13 3.61-.46 2.73-.48 4.49-.78 5.28-.91l.26-.03c2.83-.37 6.92-.82 12.49-1.36.24-.03.47-.04.71-.05 3.18-.11 7.7-.46 13.45-1.05 1.27-.22 2.44-.32 3.56-.32 2.02 0 3.9.36 5.6 1.06.04.02.08.03.13.05 4.28 1.84 7.22 5.71 7.92 10.39.21 1.25.21 2.55.14 4.48-.01.6-.06 1.63-.29 4.49z"/><path fill="#FFF" d="M59.399 26.437c-.115.294-.346.675-.692 1.144-.751.47-1.704.703-2.858.703-1.213 0-1.892-.469-2.037-1.407-.146-.938-.159-2.287-.041-4.046.233-2.345.352-3.752.352-4.223 0-1.113-.178-1.964-.529-2.551-2.412.176-6.235.44-11.471.792-7.177.352-12.616 1.056-16.322 2.111a5.556 5.556 0 0 1-.44 1.759v5.277c0 3.343.469 6.892 1.407 10.644 2.169.118 5.277-.058 9.323-.527 0-.938-.059-2.257-.176-3.959-.176-1.992-.278-3.342-.308-4.046a14.91 14.91 0 0 0-.22-2.023c-.06-.82.028-1.495.264-2.022.233-.528.908-.82 2.023-.88 1.056-.117 1.816 0 2.287.352.469.353.732.896.791 1.628.058.733.117 1.422.176 2.066.177 1.994.293 4.692.353 8.093 1.289.352 1.935 1.231 1.935 2.639 0 .294-.03.528-.088.704-.294.294-.675.791-1.144 1.495-.059.118-.059.587 0 1.407 0 1.231.117 3.138.353 5.718.176 1.114.058 1.818-.353 2.11-.997.704-2.082 1.056-3.254 1.056-1.174 0-1.848-.469-2.023-1.407V43.15c-.061-.469-.148-1.144-.267-2.022-.415-.234-1.36-.293-2.84-.176a55.053 55.053 0 0 1-3.283.439c-.829-.058-2.012.176-3.549.703-.061-.352-.089 1.379-.089 5.19v7.213c0-.059-.044.807-.132 2.595-.088 1.789-.132 3.152-.132 4.09v2.287l.262.264c1.396 0 3.549-.117 6.46-.352.115 0 .61-.088 1.484-.264.581-.177 1.047-.205 1.396-.088.465.173.915.548 1.353 1.125.437.578.655 1.096.655 1.558 0 .635-.439 1.212-1.319 1.73-.587.288-1.202.605-1.848.952h-6.861c-1.467 0-3.738.528-6.817 1.583-3.078 1.056-5.264 1.584-6.553 1.584-.704 0-1.35-.118-1.936-.353a7.983 7.983 0 0 1-1.011-.747c-.383-.323-.603-.807-.66-1.451-.059-.645 0-1.144.176-1.496.88-1.641 2.375-2.491 4.486-2.551 3.4-.176 5.131-.277 5.189-.308.058-.028.205-.189.439-.484-.059-1.055.029-4.719.265-10.995v-9.675h-4.75c-1.35-.116-2.023-.988-2.023-2.618 0-.815.26-1.398.781-1.747.346-.232.895-.553 1.646-.96.808-.115 1.992-.378 3.554-.786-.206-1.512-.411-3.723-.616-6.634 0-.581.103-1.818.309-3.709.204-1.892.308-3.274.308-4.148 0-1.221-.176-2.035-.527-2.443-.471 0-1.247.103-2.331.308-1.086.206-1.892.308-2.419.308-1.35 0-2.347-.557-2.991-1.671a1.518 1.518 0 0 1-.352-.968c0-.938.732-1.729 2.199-2.375 1.231-.585 2.315-.879 3.254-.879 1.29-.059 2.991-.265 5.103-.616 2.639-.469 4.339-.762 5.102-.88 2.696-.352 6.742-.791 12.139-1.319 3.518-.116 8.385-.497 14.601-1.144 1.584-.292 2.727-.292 3.431 0 .82.353 1.289 1.027 1.407 2.023.058.235.058 1.056 0 2.463 0 .47-.088 1.789-.264 3.958-.118 1.76-.176 3.167-.176 4.223 0 .118.061.278.183.483.122.206.185.338.185.396-.001.411.023.967.071 1.671z"/></svg>

<svg version="1.1" width="71" height="83" xmlns="http://www.w3.org/2000/svg" xmlns:xlink="http://www.w3.org/1999/xlink">
  <!-- Exported by Scratch - http://scratch.mit.edu/ -->
  <g id="ID0.4852326139807701">
    <g id="ID0.5663091018795967">
      <g id="ID0.3804601556621492">
        <path id="ID0.027033838909119368" fill="#00CCCC" d="M 70.109 20.470 C 70.059 21.120 70.029 21.670 70.009 22.130 C 70.199 22.910 70.329 23.790 70.329 24.770 C 70.329 24.990 70.349 25.290 70.369 25.680 C 70.489 27.300 70.239 28.930 69.639 30.450 C 69.159 31.680 68.499 32.840 67.549 34.120 C 66.729 35.230 65.709 36.180 64.539 36.910 C 62.019 38.480 59.099 39.280 55.849 39.280 C 55.279 39.280 54.709 39.250 54.159 39.190 C 54.079 40.200 53.879 41.170 53.579 42.090 C 53.429 42.530 53.259 42.970 53.059 43.390 C 53.099 44.050 53.169 44.910 53.269 46.010 C 54.229 53.300 50.179 57.060 48.359 58.360 C 47.979 58.620 47.599 58.880 47.199 59.110 C 48.679 61.680 49.029 64.060 49.029 65.710 C 49.029 70.310 46.569 74.400 42.289 76.920 C 42.049 77.060 41.799 77.190 41.549 77.320 C 41.079 77.550 40.579 77.810 40.059 78.080 C 38.459 78.940 36.679 79.390 34.859 79.390 L 28.229 79.390 C 27.939 79.440 26.919 79.640 24.749 80.380 C 20.299 81.910 17.269 82.560 14.629 82.560 C 12.519 82.560 10.499 82.180 8.609 81.420 C 8.069 81.210 7.549 80.950 7.049 80.650 C 6.239 80.160 5.429 79.580 4.579 78.860 C 1.989 76.670 0.379 73.520 0.069 69.990 C -0.181 67.300 0.249 64.810 1.349 62.610 C 1.399 62.510 1.449 62.410 1.499 62.320 C 3.479 58.630 6.639 56.020 10.509 54.780 C 10.529 54.210 10.549 53.610 10.579 52.970 L 10.579 52.900 C 6.419 50.650 3.799 46.240 3.799 40.880 C 3.799 36.660 5.619 32.910 8.809 30.470 C 6.629 29.350 4.759 27.660 3.379 25.530 C 1.929 23.430 1.169 21 1.169 18.430 C 1.169 13.110 4.379 8.500 9.779 6.060 C 12.319 4.870 14.829 4.240 17.249 4.180 C 17.779 4.150 18.879 4.050 20.859 3.720 C 23.589 3.240 25.349 2.940 26.139 2.810 C 26.229 2.800 26.309 2.790 26.399 2.780 C 29.229 2.410 33.319 1.960 38.889 1.420 C 39.129 1.390 39.359 1.380 39.599 1.370 C 42.779 1.260 47.299 0.910 53.049 0.320 C 54.319 0.100 55.489 0 56.609 0 C 58.629 0 60.509 0.360 62.209 1.060 C 62.249 1.080 62.289 1.090 62.339 1.110 C 66.619 2.950 69.559 6.820 70.259 11.500 C 70.469 12.750 70.469 14.050 70.399 15.980 C 70.389 16.580 70.339 17.610 70.109 20.470 Z "/>
      </g>
    </g>
    <g id="ID0.3863844624720514">
      <path id="ID0.5626670885831118" fill="#FFFFFF" d="M 59.399 26.437 C 59.284 26.731 59.053 27.112 58.707 27.581 C 57.956 28.051 57.003 28.284 55.849 28.284 C 54.636 28.284 53.957 27.815 53.812 26.877 C 53.666 25.939 53.653 24.590 53.771 22.831 C 54.004 20.486 54.123 19.079 54.123 18.608 C 54.123 17.495 53.945 16.644 53.594 16.057 C 51.182 16.233 47.359 16.497 42.123 16.849 C 34.946 17.201 29.507 17.905 25.801 18.960 C 25.742 19.606 25.595 20.191 25.361 20.719 C 25.361 21.130 25.361 21.687 25.361 22.390 C 25.361 23.505 25.361 24.707 25.361 25.996 C 25.361 29.339 25.830 32.888 26.768 36.640 C 28.937 36.758 32.045 36.582 36.091 36.113 C 36.091 35.175 36.032 33.856 35.915 32.154 C 35.739 30.162 35.637 28.812 35.607 28.108 C 35.577 27.405 35.504 26.731 35.387 26.085 C 35.327 25.265 35.415 24.590 35.651 24.063 C 35.884 23.535 36.559 23.243 37.674 23.183 C 38.730 23.066 39.490 23.183 39.961 23.535 C 40.430 23.888 40.693 24.431 40.752 25.163 C 40.810 25.896 40.869 26.585 40.928 27.229 C 41.105 29.223 41.221 31.921 41.281 35.322 C 42.570 35.674 43.216 36.553 43.216 37.961 C 43.216 38.255 43.186 38.489 43.128 38.665 C 42.834 38.959 42.453 39.456 41.984 40.160 C 41.925 40.278 41.925 40.747 41.984 41.567 C 41.984 42.798 42.101 44.705 42.337 47.285 C 42.513 48.399 42.395 49.103 41.984 49.395 C 40.987 50.099 39.902 50.451 38.730 50.451 C 37.556 50.451 36.882 49.982 36.707 49.044 L 36.707 43.150 C 36.646 42.681 36.559 42.006 36.440 41.128 C 36.025 40.894 35.080 40.835 33.600 40.952 C 32.536 41.128 31.441 41.274 30.317 41.391 C 29.488 41.333 28.305 41.567 26.768 42.094 C 26.707 41.742 26.679 43.473 26.679 47.284 L 26.679 54.497 C 26.679 54.438 26.635 55.304 26.547 57.092 C 26.459 58.881 26.415 60.244 26.415 61.182 C 26.415 62.765 26.415 63.528 26.415 63.469 C 26.473 63.528 26.561 63.615 26.677 63.733 C 28.073 63.733 30.226 63.616 33.137 63.381 C 33.252 63.381 33.747 63.293 34.621 63.117 C 35.202 62.940 35.668 62.912 36.017 63.029 C 36.482 63.202 36.932 63.577 37.370 64.154 C 37.807 64.732 38.025 65.250 38.025 65.712 C 38.025 66.347 37.586 66.924 36.706 67.442 C 36.119 67.730 35.504 68.047 34.858 68.394 C 34.448 68.394 33.861 68.394 33.099 68.394 L 27.997 68.394 C 26.530 68.394 24.259 68.922 21.180 69.977 C 18.102 71.033 15.916 71.561 14.627 71.561 C 13.923 71.561 13.277 71.443 12.691 71.208 C 12.397 71.032 12.060 70.782 11.680 70.461 C 11.297 70.138 11.077 69.654 11.020 69.010 C 10.961 68.365 11.020 67.866 11.196 67.514 C 12.076 65.873 13.571 65.023 15.682 64.963 C 19.082 64.787 20.813 64.686 20.871 64.655 C 20.929 64.627 21.076 64.466 21.310 64.171 C 21.251 63.116 21.339 59.452 21.575 53.176 L 21.575 43.501 C 18.701 43.501 17.118 43.501 16.825 43.501 C 15.475 43.385 14.802 42.513 14.802 40.883 C 14.802 40.068 15.062 39.485 15.583 39.136 C 15.929 38.904 16.478 38.583 17.229 38.176 C 18.037 38.061 19.221 37.798 20.783 37.390 C 20.577 35.878 20.372 33.667 20.167 30.756 C 20.167 30.175 20.270 28.938 20.476 27.047 C 20.680 25.155 20.784 23.773 20.784 22.899 C 20.784 21.678 20.608 20.864 20.257 20.456 C 19.786 20.456 19.010 20.559 17.926 20.764 C 16.840 20.970 16.034 21.072 15.507 21.072 C 14.157 21.072 13.160 20.515 12.516 19.401 C 12.282 19.108 12.164 18.785 12.164 18.433 C 12.164 17.495 12.896 16.704 14.363 16.058 C 15.594 15.473 16.678 15.179 17.617 15.179 C 18.907 15.120 20.608 14.914 22.720 14.563 C 25.359 14.094 27.059 13.801 27.822 13.683 C 30.518 13.331 34.564 12.892 39.961 12.364 C 43.479 12.248 48.346 11.867 54.562 11.220 C 56.146 10.928 57.289 10.928 57.993 11.220 C 58.813 11.573 59.282 12.247 59.400 13.243 C 59.458 13.478 59.458 14.299 59.400 15.706 C 59.400 16.176 59.312 17.495 59.136 19.664 C 59.018 21.424 58.960 22.831 58.960 23.887 C 58.960 24.005 59.021 24.165 59.143 24.370 C 59.265 24.576 59.328 24.708 59.328 24.766 C 59.327 25.177 59.351 25.733 59.399 26.437 Z "/>
    </g>
  </g>
</svg>
